X:1
T:Tachanka
T:Tachanka
T:Тачанка
T:Konstantin Listov 
T:Renat Ibragimov Arr. by Hablamalamalos
C:Konstantin Listov
Z:Renat Ibragimov
%%score { ( 1 4 5 ) | ( 2 3 6 ) }
L:1/8
Q:1/4=180
M:2/4
K:F
V:1 treble nm="Piano" snm="Pno."
V:4 treble 
V:5 treble 
V:2 bass 
V:3 bass 
V:6 bass 
V:1
!mf! [Ad_ga]2 [_GAd]2 | [cc'][dd'] [Bb][Aa] | [Gg]4 | [Dd]4 | [Gg]2 [Ee]2 | [Aa][Gg] [Aa][_D_d] | %6
 [Dd]4- | [Dd]4 |!mp! D2 A2 | G2 E2 | F2 D2 | C2 A,2 | D2 A2 | G2 C>C | A4- | A4 | A2 D2 | cc BA | %18
 G4 | E4 | G2 E2 | AB AG |!<(! D4-!<)! | D4 |!mf! D2 A2 | G3 E |"_cresc." F2 x2 | C2 A,2 | D2 A2 | %29
 GF GC |!f! A4- |"_cresc." A4 | A2 Dc- | cc BA | x4 | E4 | G2 E2 | AB AG |!<(! D4-!<)! | D4 | %40
 !>!C2!mf! C2 | c3 B | A2 G2 | F2 ED | C2 C2 | cB AG | A4- | A4 |!<(! B2 G2!<)! | _E2 B2 | AG FE | %51
 D2 A2 | c3 B | AB AG | D4- | D4 |!f! [Cc]2 [Cc]2 | [cegc']3 [Beb] | [CAca]2 [CGcg]2 | %59
 [FAcfa]2 [Ee][Dd] | [Cce]2 [Cce]2 | [cc'][Bb] [Aa][Gg] | [Aa]4- | [Aa]4 | [B_eb]2 [GBg]2 | %65
 [_EG_e]2 [Bgb]2 | [Aa][Gg] [Ff][Ee] | [Dd]2 [Aa]2 |!<(! [cc']3 [Bb]!<)! | [Aa][Bb] [Aa][Gg] | %70
 [Dd]4- | [Dd]4 |] %72
V:2
 D,2 D,2 | D,D, D,D, | D,4 | D,4 | D,2 D,2 | _D,D, D,D, | D,4- | D,4 | x4 | x4 | x4 | x4 | x4 | %13
 x4 | x4 | x4 | x4 | x4 | x4 | x4 | x4 | x4 | x4 | x4 | x4 | x4 | x4 | x4 | x4 | x4 | x4 | x4 | %32
 x4 | x4 | x4 | x4 | x4 | x4 | x4 | x4 | x4 | x4 | x4 | x4 | x4 | x4 | x4 | x4 | x4 | x4 | x4 | %51
 x4 | x4 | x4 | x4 | x2 x2 | x2 x x | x2 x2 | x2 x2 | x2 x2 | x2 x2 | x2 x2 | x2 x x | x2 x2 | %64
 x2 x2 | x2 x2 | x2 x2 | x2 x2 | x2 x2 | x2 x2 | x4 | x4 |] %72
V:3
 D,,2 A,,2 | D,2 [D,,D,]2 | [G,,G,]2 B,,,2 | D,,2 [G,,G,]2 | [E,,E,]2 B,,2 | [A,,A,]2 A,,,2 | %6
 [D,,D,]2 [A,,,A,,]2 | [D,,D,]2 [A,,,A,,]2 | [D,,D,]2 [F,,F,]2 | G,,2 B,,2 | [D,,D,]2 [F,,F,]2 | %11
 [A,,,A,,]2 [C,,C,]2 | [D,,D,]2 [D,,F,]2 | [G,,G,]2 [C,,C,]2 | [F,,F,]2 A,,2 | C,2 F,,2 | %16
 D,,2 [A,,D,]2 | D,2 [D,,D,]2 | [G,,G,]2 [D,,D,]2 | B,,,2 D,,2 | E,,2 G,,2 | [A,,A,]2 [A,,,A,,]2 | %22
 [D,,D,]2 [A,,,A,,D,]2 | [D,,D,]2 [A,,,A,,D,]2 | [D,,D,]2 [F,,F,]2 | G,,2 B,,2 | %26
 [D,,D,]2 [F,,F,]2 | [A,,,A,,]2 [C,,C,]2 | [D,,D,]2 [D,,F,]2 | [G,,G,]2 [C,,C,]2 | %30
 [F,,F,]2 [A,,A,]2 | [C,C]2 [F,,F,]2 | [D,,D,]2 [A,,D,]2 | [D,D]2 [D,,D,]2 | [G,,G,]2 [D,,D,]2 | %35
 [B,,,B,,]2 [D,,D,]2 | [E,,E,]2 [G,,G,]2 | [A,,A,]2 [A,,,A,,]2 | [D,,D,]2 [A,,,A,,]2 | %39
 [D,,D,]2 [G,,F,]2 | !>![C,G,]2 [C,,,E,,G,]2 | [G,,,G,,G,]2 C,,[B,,B,] | [F,,F,A,]2 [C,,G,]2 | %43
 F,,2 A,,2 | C,2 [C,,C,]2 | [C,,E,,]2 G,,2 | [F,,F,A,]2 A,,2 | C,2 [F,,F,]2 | %48
 [_E,,B,]2 [G,,_E,G,]2 | B,,2 _E,,2 | D,,2 A,,,2 | [D,,D,F,]2 D,,2 | [F,,F,]2 F,,2 | %53
 [A,,A,]2 A,,,2 | [D,,D,A,]2 [A,,,D,]2 | [D,,D,]2 [G,,,G,,F,]=B,, | [C,,C,]2 [C,,,C,,E,,C,E,]2 | %57
 [G,,C,E,]2 [C,,C,]2 | [C,,F,,C,C,F,A,A,]2 [C,,C,G,]2 | [F,,C,F,A,]2 [A,,A,]2 | %60
 [C,,C,E,]2 [C,,C,]2 | [E,,E,]2 [C,,C,]E, | [F,,F,]2 [C,,G,,G,]2 | [C,,C,F,]2 [F,,F,]2 | %64
 [_E,,G,,_E,G,]2 [G,,G,]2 | [B,,B,]2 [_E,,G,]2 | [D,,D,F,]2 [A,,,A,,]2 | [D,,D,A,]2 [D,,D,]2 | %68
 [F,,F,]2 [F,,F,]2 | [A,,A,]2 [A,,,A,,]2 | [D,,D,]2 [A,,,A,,]2 | [D,,D,]4 |] %72
V:4
 x4 | x4 | x4 | x4 | x4 | x4 | x4 | x4 | D4 | E4 | F4 | G4 | A4 | B4 | x2 AA/A/ | AC FA | c4- | %17
 c4 | B4- | B4- | B4 | x4 | x4 | x4 | D2 [Dd]2 | [Dd]3 [Dd] | [Dd]2 D2 | x2 [Cc]2 | x2 [Dd]2 | %29
 [Ee][Ee] [Ee][Ee] | [Ff]4- | [Ff]4 | [_G_g]2 [Gg]2 | [_G_g][Gg] [Gg][Gg] | G4 | G4 | [Dd]4 | %37
 [_D_d]2 [Dd]2 | D4- | D4 | x4 | x4 | x4 | x4 | x4 | x4 | x4 | x4 | B4- | B4 | A2 c2 | d2 x2 | x4 | %53
 x4 | d4- | d2 _d2 | x4 | x4 | x4 | x4 | x4 | [cec']4 | x4 | x4 | x4 | x4 | [Adfa]2 [cc']2 | %67
 [dd']2 x2 | [Aca]4 | [_d_d']4 | [dfad']4 | x4 |] %72
V:5
 x4 | x4 | x4 | x4 | x4 | x4 | x4 | x4 | x4 | x4 | x4 | x4 | x4 | x4 | x4 | x4 | A4- | A2 B2 | x4 | %19
 x4 | x4 | x4 | x4 | x4 | d2 a2 | g2 e2 | f2 d2 | c2 A2 | d2 a2 | gf gc' | a4- | a4 | a2 d2 | %33
 c'd' ba | g4 | g4 | g2 e2 | ab ag | d4- | d4 | x4 | x4 | x4 | x4 | x4 | x4 | x4 | x4 | x4 | x4 | %50
 x4 | x4 | x4 | x4 | x4 | x4 | x4 | x4 | x4 | x4 | x4 | x4 | x4 | x4 | x4 | x4 | x4 | x4 | x4 | %69
 x4 | x4 | x4 |] %72
V:6
 x4 | x4 | x4 | x4 | x4 | x4 | x4 | x4 | x4 | x4 | x4 | x4 | x4 | x4 | x4 | x4 | x4 | x4 | x4 | %19
 x4 | x4 | x4 | x4 | x4 | D,B,, A,2 | [G,,G,]>F, [B,,E,]2 | [D,A,]2 [D,F,A,][D,A,] | %27
 [A,,C]>[A,,B,] A,[A,,A,] | [D,A,]2 A,2 | x4 | x4 | x4 | x4 | x4 | x4 | x4 | x4 | x4 | x4 | x4 | %40
 x4 | x4 | x4 | x4 | x4 | x4 | x4 | x4 | x4 | x4 | x4 | x4 | x4 | x4 | x4 | x4 | x4 | x4 | x4 | %59
 x4 | x4 | x4 | x4 | x4 | x4 | x4 | x4 | x4 | x4 | x4 | x4 | x4 |] %72

